X: 28387
T: Muiñeiras Do Cuarto Baleiro
R: jig
M: 6/8
K: Gmajor
|:G2G AGF|G2D GAB|G2G AGF|GAB A2G|G2G AGF|
G2D GAB|1 G2G AGF|G2D DED:|2 ABc Bcd|cde def||
g2g efg|c2c ded-|d3DEG|ABA AGF|
E2z efg|c2c ded-|d3 BAG|ABA AGF|
E2z efg|c2c ded-|d3DEG|ABA AGF|
E2z efg|c2c ded-|d3 BAG|ABA AGF||

